X: 20746
T: Johnny Gorman's
R: barndance
M: 4/4
K: Gmajor
D2 G2 G2 BG|FGAB c2 cA|B2 GB A2 FG|A2 ^GA FAEA|
D2 GF GBAG|FGAB c2 BA|B2 GB A2 FA|G2 B2 G2:|
d2 Bd gdBd|c2 Bd e2 dc|BGGB AFFG|A2 ^GA FAd^c|
d2 Bd gd B2|cBcd e2 dc|B2 GB A2 FA|G2 G2 G2:|

